!!!!SEGMENT: pl-sa--176-a-v-6--007_anonim--msza-agnus-dei.krn
!!!cenid: 17xx:1618
!!!COM: Anonim
!!!COM-rismID: pe30004985
!!!CDT:
!!!CNT:
!!!OPR: Msza
!!!OTL: Agnus Dei
!!!OMV: 007
!!!PDT:
!!!AGN: Sacred; Mass
!!!SMS-siglum: PL-SA
!!!SMS-shelfmark: 176/A V 6
!!!SMS-shelfwork: 001-007 M
!!!SMS-variant:
!!!SMS-altvar:
!!!NIFC-rismSourceID: 1001035881
!!!NIFC-islandoraID:
!!!URL-pdf-islandora:
!!!URL-scan: https://bc.bdsandomierz.pl/dlibra/publication/1510/edition/1478/content @EN{Scan in the Sandomierz Diocese Digital Library} @PL{Skany w portalu Cyfrowa Biblioteka Diecezjalna w Sandomierzu}
!!!ONB-nifc: UWAGA: części Mszy: 1. Kyrie, 2. Et in terra, 3. Patrem, 4. Sanctus, 5. Osanna, 6. Benedictus, 7. Agnus Dei. Uwaga: błąd w sygnaturze w metadanych bc.bdsandomierz.pl
!!!AIN: 1 alto 1 bass 2 corno 1 organ 1 soprn 1 tenor 2 violn
!!!key: E-
**kern	**fba	**kern	**kern	**kern	**text	**kern	**text	**kern	**text	**kern	**text	**kern	**kern
*	*	*group3	*group3	*group2	*	*group2	*	*group2	*	*group2	*	*group1	*group1
*part9	*	*part8	*part7	*part6	*part6	*part5	*part5	*part4	*part4	*part3	*part3	*part2	*part1
*staff9	*	*staff8	*staff7	*staff6	*staff6	*staff5	*staff5	*staff4	*staff4	*staff3	*staff3	*staff2	*staff1
*I"ORG.ANO.	*	*I"Violino 2do	*I"Violino 1mo.	*I"Baſso.	*	*I"Tenore.	*	*I"Alto.	*	*I"Canto.	*	*I"Lituo 2do ex Dis ad Libitum	*I"Lituo 1mo ex Dis ad Libitum
*I'org	*	*I'vl 2	*I'vl 1	*I'B	*	*I'T	*	*I'A	*	*I'S	*	*I'lituus 2	*I'lituus 1
*Iorgan	*	*Ivioln	*Ivioln	*Ibass	*	*Itenor	*	*Ialto	*	*Isoprn	*	*Icorno	*Icorno
*ICklav	*	*ICstr	*ICstr	*ICvox	*	*ICvox	*	*ICvox	*	*ICvox	*	*ICww	*ICww
*IGcont	*	*	*	*IGcoro	*	*IGcoro	*	*IGcoro	*	*IGcoro	*	*	*
*clefF4	*	*clefG2	*clefG2	*clefF4	*	*clefC4	*	*clefC3	*	*clefC1	*	*clefG2	*clefG2
*	*	*	*	*	*	*	*	*	*	*	*	*ITrd-2c-3	*ITrd-2c-3
*k[a-b-e-]	*	*k[a-b-e-]	*k[a-b-e-]	*k[a-b-e-]	*	*k[a-b-e-]	*	*k[a-b-e-]	*	*k[a-b-e-]	*	*k[b-e-a-]	*k[b-e-a-]
*E-:	*	*E-:	*E-:	*E-:	*	*E-:	*	*E-:	*	*E-:	*	*E-:	*E-:
*M4/4	*	*M4/4	*M4/4	*M4/4	*	*M4/4	*	*M4/4	*	*M4/4	*	*M4/4	*M4/4
*met(c)	*	*met(c)	*met(c)	*met(c)	*	*met(c)	*	*met(c)	*	*met(c)	*	*met(c)	*met(c)
=1	=1	=1	=1	=1	=1	=1	=1	=1	=1	=1	=1	=1	=1
!	!	!	!	!	!	!	!	!	!	!LO:TX:t=P:problem=kolejność znaków a- b- ee-	!	!	!
4E-\	6	8e-/L	8e-/L	4E-\	A-	4B-\	A-	4g\	A-	4ee-\	A-	4gg\	4bb-\
.	.	8g/J	8g/J	.	.	.	.	.	.	.	.	.	.
4G\	7	8b-\L	8b-\L	4G\	-gnus	4B-\	-gnus	4e-\	-gnus	4ee-\	-gnus	4ee-\	4bb-\
.	.	8ee-\J	8ee-\J	.	.	.	.	.	.	.	.	.	.
4F\	.	4ee-\	4ee-\	4F\	De-	4c\	De-	4a-\	De-	4ee-\	De-	4ff\	4aa-\
4B-\	.	4dd\	4dd\	8B-\	-i	8B-\	-i	8f\	-i	8dd\	-i	4b-/	4ff\
.	.	.	.	8B-\	qui	8B-\	qui	8f\	qui	8dd\	qui	.	.
=2	=2	=2	=2	=2	=2	=2	=2	=2	=2	=2	=2	=2	=2
4B-\	4 2	8cc\L	8cc\L	8B-\	tol-	4c\	tol-	4e-\	tol-	4cc\	tol-	4ee-\	4bb-\
.	.	8ff\J	8ff\J	8B-\	-lis	.	.	.	.	.	.	.	.
4A-\	6	16aa-\LL	16aa-\LL	8A-\	tol-	8c\	-lis	8a-\	-lis	8ff\	-lis	4ff\	4ff\
.	.	16gg\	16gg\	.	.	.	.	.	.	.	.	.	.
.	.	16ff\	16ff\	16A-\	-lis	8c\	pec-	8g\	pec-	8ee-\	pec-	.	.
.	.	16ee-\JJ	16ee-\JJ	16A-\	pec-	.	.	.	.	.	.	.	.
4A-\	4 2	8dd\L	8dd\L	4A-\	-ca-	4B-\	-ca-	4f\	-ca-	4dd\	-ca-	4b-/	4ff\
.	.	8b-\	8b-\	.	.	.	.	.	.	.	.	.	.
4G\	6	8ee-\	8ee-\	4G\	-ta	4B-\	-ta	4g\	-ta	4ee-\	-ta	4ee-\	4bb-\
.	.	8gg\J	8gg\J	.	.	.	.	.	.	.	.	.	.
=3	=3	=3	=3	=3	=3	=3	=3	=3	=3	=3	=3	=3	=3
*	*	*	*	*2\right	*	*	*	*2\right	*	*	*	*2\right	*2\right
4F\	7	8aa-\L	8aa-\L	2F\	mun-	(4c\	mun-	2a-\	mun-	4ee-\	mun-	2ff\	2aa-\
.	.	16gg\L	16gg\L	.	.	.	.	.	.	.	.	.	.
.	.	16ff\JJ	16ff\JJ	.	.	.	.	.	.	.	.	.	.
4BB-/	7	8bb-\L	8bb-\L	.	.	4B-\)	.	.	.	4dd\	.	.	.
.	.	8ff\J	8ff\J	.	.	.	.	.	.	.	.	.	.
!	!	!	!	!	!	!	!	!	!	!	!	!LO:TX:t=P:problem=mixed beam	!
4E-\	.	8gg\L	8gg\L	4E-\	-di	4B-\	-di	4g\	-di	4ee-\	-di	8b-/L	8gg\L
.	.	8ee-\	8ee-\	.	.	.	.	.	.	.	.	8gg\	8bb-\
4E-\	.	8gg\	8gg\	4E-\	pec-	4G/	pec-	4g\	pec-	4b-\	pec-	8gg\	8bb-\
.	.	8b-\J	8b-\J	.	.	.	.	.	.	.	.	8ee-\J	8gg\J
=4	=4	=4	=4	=4	=4	=4	=4	=4	=4	=4	=4	=4	=4
4E-\	6 4	8ff\L	8ff\L	4E-\	-ca-	4An\	-ca-	4f\	-ca-	4cc\	-ca-	2ff\	4aaX\
.	.	8cc\	8cc\	.	.	.	.	.	.	.	.	.	.
4D\	6	8ff\	8ff\	4D/	-ta	4B-\	-ta	4f\	-ta	4dd\	-ta	.	4bb-\
.	.	8bb-\J	8bb-\J	.	.	.	.	.	.	.	.	.	.
*	*	*2\right	*2\right	*	*	*	*	*	*	*2\right	*	*	*
2C/	7	2ee-T\	2ee-T\	2C/	mun-	4B-\	mun-	(4g\	mun-	2ee-\	mun-	2ee-\	4bb-\
.	6	.	.	.	.	4An\	.	4c/)	.	.	.	.	4aaX\
=5	=5	=5	=5	=5	=5	=5	=5	=5	=5	=5	=5	=5	=5
4BB-/	.	4dd\	4dd\	4BB-/	-di	4B-\	-di	4f\	-di	4dd\	-di	4ff\	4bb-\
4rBB	.	8r	8r	4r	.	4rF	.	4r	.	8r	.	4r	4r
.	.	8f/	8d/	.	.	.	.	.	.	8b-\	Qui	.	.
4rBB	.	8g/L	8e-/L	4r	.	4rF	.	4r	.	[<2b-\	tol-	2r	2r
.	.	8f/	8d/	.	.	.	.	.	.	.	.	.	.
8r	.	8g/	8e-/	8r	.	8r	.	8r	.	.	.	.	.
8D\	6	8b-/J	8f/J	8D\	Qui	8B-\	Qui	8f\	Qui	.	.	.	.
!	!	!LO:LB:g=original	!	!LO:LB:g=original	!	!LO:LB:g=original	!	!LO:LB:g=original	!	!LO:LB:g=original	!	!	!
=6	=6	=6	=6	=6	=6	=6	=6	=6	=6	=6	=6	=6	=6
!	!	!	!	!	!	!	!	!	!	!LO:TX:t=P:problem=brak zakończenia ligatury	!	!	!
4E-\	5_	4.b-/	8g/L	4E-\	tol-	4G/	tol-	4g\	tol-	4b-\_	.	0r	0r
.	.	.	8b-/	.	.	.	.	.	.	.	.	.	.
8E-\	.	.	8e-/	8E-\	-lis	8G/	-lis	8g\	-lis	8b-\]	-lis	.	.
8r	X	8g/	8en/J	8r	.	8r	.	8r	.	8cc\	Qui	.	.
!	!	!	!LO:LB:g=original	!	!	!	!	!	!	!	!	!	!
4r	.	8a-X\L	8f/L	4r	.	4r	.	4r	.	[<2cc\	tol-	.	.
.	.	8g\	8en/	.	.	.	.	.	.	.	.	.	.
8r	.	8a-\	8f/	8r	.	8r	.	8r	.	.	.	.	.
8En\	6	8cc\J	8g/J	8En\	Qui	8c\	Qui	8g\	Qui	.	.	.	.
=7	=7	=7	=7	=7	=7	=7	=7	=7	=7	=7	=7	=7	=7
4F\	.	4.cc\	8an\L	4F\	tol-	4An/	tol-	4an\	tol-	4cc\]	.	.	.
.	.	.	8cc\J	.	.	.	.	.	.	.	.	.	.
8F\	n	.	8f/L	8F\	-lis	8A/	-lis	8a\	-lis	8cc\	-lis	.	.
8r	.	8an\	8f#X/J	8r	.	8r	.	8r	.	8dd\	Qui	.	.
4r	.	8b-\L	8g/L	4r	.	4r	.	4r	.	[<2dd\	tol-	.	.
.	.	8an\	8f#X/	.	.	.	.	.	.	.	.	.	.
8r	.	8b-\	8g/	8r	.	8r	.	8r	.	.	.	.	.
8F#X\	6	8dd\J	8an/J	8F#X\	Qui	8d\	Qui	8a\	Qui	.	.	.	.
!LO:LB:g=original	!	!	!	!	!	!	!	!	!	!	!	!	!
=8	=8	=8	=8	=8	=8	=8	=8	=8	=8	=8	=8	=8	=8
4G\	.	4dd\	8b-\L	4G\	tol-	4B-\	tol-	4g\	tol-	4dd\]	-lis	4r	4r
.	.	.	8dd\	.	.	.	.	.	.	.	.	.	.
!	!	!LO:TX:t=P:problem=mixed beam	!	!	!	!	!	!	!	!	!	!	!
4E-X\	.	8ee-\L	8g\	8E-X\	-lis	8c\	-lis	8g\	-lis	4ee-\	pec-	4gg\	4bb-\
.	.	8g/J	8ee-\J	8E-\	pec-	8B-\	pec-	8g\	pec-	.	.	.	.
4Fn\	n7	4an/	8ee-\L	4F\	-ca-	4An\	-ca-	4f\	-ca-	4ee-\	-ca-	4ff\	4aaX\
.	.	.	8cc\	.	.	.	.	.	.	.	.	.	.
4BB-/	.	[4b-/	8dd\	4B-\	-ta	4B-\	-ta	4f\	-ta	4dd\	-ta	4ff\	4bb-\
.	.	.	8b-\J	.	.	.	.	.	.	.	.	.	.
=9	=9	=9	=9	=9	=9	=9	=9	=9	=9	=9	=9	=9	=9
4F\	4	4b-/]	8cc\L	2F\	mun-	4B-\	mun-	2f\	mun-	2cc\	mun-	2ff\	4bb-\
.	.	.	8ff\	.	.	.	.	.	.	.	.	.	.
4FF/	n	4an/	8ff\	.	.	4An\	.	.	.	.	.	.	4aaX\
.	.	.	8cc\J	.	.	.	.	.	.	.	.	.	.
4BB-/	.	4b-/	4dd\	4BB-/	-di	4B-\	-di	4f\	-di	4dd\	-di	4ff\	4bb-\
4rBB	.	8r	8r	4rBB	.	4r	.	8r	.	4r	.	4r	4r
.	.	8B-/	8G/	.	.	.	.	8e-\	Qui	.	.	.	.
=10	=10	=10	=10	=10	=10	=10	=10	=10	=10	=10	=10	=10	=10
4rBB	.	8c/L	8A-/L	4r	.	4r	.	[2e-\	tol-	4r	.	00r	00r
.	.	8B-/	8G/	.	.	.	.	.	.	.	.	.	.
8rBB	.	8c/	8A-/	8r	.	8r	.	.	.	8r	.	.	.
8G\	6	8e-/J	8B-/J	8G\	Qui	8B-\	Qui	.	.	8ee-\	Qui	.	.
4A-\	5_	4.e-/	8c/L	4A-X\	tol-	4c\	tol-	4e-\]	.	4cc\	tol-	.	.
.	.	.	8e-/	.	.	.	.	.	.	.	.	.	.
8A-\	.	.	8A-/	8A-\	-lis	8c\	-lis	8e-\	-lis	8cc\	-lis	.	.
8r	X	8c/	8An/J	8r	.	8r	.	8f\	qui	8r	.	.	.
=11	=11	=11	=11	=11	=11	=11	=11	=11	=11	=11	=11	=11	=11
4r	.	8d/L	8B-/L	4r	.	4r	.	2f\	tol-	4r	.	.	.
.	.	8c/	8An/	.	.	.	.	.	.	.	.	.	.
8r	.	8d/	8B-/	8r	.	8r	.	.	.	8r	.	.	.
8An\	6	8f/J	8c/J	8An\	Qui	8c\	Qui	.	.	8ff\	Qui	.	.
4B-\	5_	4.f/	8d/L	4B-\	tol-	4d\	tol-	4f\	.	4dd\	tol-	.	.
.	.	.	8f/	.	.	.	.	.	.	.	.	.	.
8B-\	.	.	8B-/	8B-\	-lis	8d\	-lis	8f\	-lis	8dd\	-lis	.	.
8r	X	8d/	8Bn/J	8r	.	8r	.	8g\	qui	8r	.	.	.
!	!	!	!LO:LB:g=original	!LO:LB:g=original	!	!LO:LB:g=original	!	!LO:LB:g=original	!	!LO:LB:g=original	!	!	!
=12	=12	=12	=12	=12	=12	=12	=12	=12	=12	=12	=12	=12	=12
4r	.	8e-/L	8c/L	4r	.	4r	.	4g\	tol-	4r	.	.	.
.	.	8d/	8Bn/	.	.	.	.	.	.	.	.	.	.
8r	.	8e-/	8c/	8r	.	8r	.	8g\	-lis	8r	.	.	.
8Bn\	6	8g/J	8d/J	8Bn\	pec-	8d\	pec-	8g\	pec-	8gg\	pec-	.	.
!	!	!	!LO:TX:t=P:problem=mixed beam	!	!	!	!	!	!	!	!	!	!
4c\	.	4g/	8e-/L	4c\	-ca-	4c\	-ca-	4g\	-ca-	4ee-\	-ca-	.	.
.	.	.	8ee-\	.	.	.	.	.	.	.	.	.	.
4F\	6 5	4a-/	8dd\	4F\	-ta	4c\	-ta	4a-\	-ta	4dd\	-ta	.	.
.	.	.	8dd\J	.	.	.	.	.	.	.	.	.	.
!	!	!LO:LB:g=original	!	!	!	!	!	!	!	!	!	!	!
=13	=13	=13	=13	=13	=13	=13	=13	=13	=13	=13	=13	=13	=13
4G\	4	2g/	4.ddt\	2G\	mun-	4c\	mun-	2g\	mun-	2dd\	mun-	.	.
4GG/	n	.	.	.	.	4Bn\	.	.	.	.	.	.	.
.	.	.	8dd\	.	.	.	.	.	.	.	.	.	.
!	!	!	!LO:TX:t=P:problem=mixed beam	!	!	!	!	!	!	!	!	!	!
4C/	.	8g/L	8cc\L	4C/	-di	4c\	-di	4g\	-di	4cc\	-di	.	.
.	.	8c/	8c/	.	.	.	.	.	.	.	.	.	.
4rBB	.	8c/	8c/	4r	.	4r	.	4r	.	4r	.	.	.
.	.	8c/J	8c/J	.	.	.	.	.	.	.	.	.	.
=14	=14	=14	=14	=14	=14	=14	=14	=14	=14	=14	=14	=14	=14
8c\L	.	4c/	4c/	(8c\L	Mi-	1r	.	1r	.	2r	.	1r	1r
8G\	.	.	.	8G\J)	.	.	.	.	.	.	.	.	.
8G\	.	4r	4r	(8G\L	-ſe-	.	.	.	.	.	.	.	.
8B-\J	.	.	.	8B-\J)	.	.	.	.	.	.	.	.	.
4A-X\	6	8ff\L	8ff\L	4A-X\	-re-	.	.	.	.	8ff\L	Mi-	.	.
.	.	8cc\	8cc\	.	.	.	.	.	.	8cc\J	.	.	.
4A-\	.	8cc\	8cc\	4A-\	-re	.	.	.	.	8cc\L	-ſe-	.	.
.	.	8ee-\J	8ee-\J	.	.	.	.	.	.	8ee-\J	.	.	.
=15	=15	=15	=15	=15	=15	=15	=15	=15	=15	=15	=15	=15	=15
8B-\L	.	4.dd\	8dd\L	8B-\L	Mi-	4B-X\	Mi-	4f\	Mi-	4dd\	-re-	2r	2r
8F\	6_	.	8ff\	8F\J	.	.	.	.	.	.	.	.	.
8F\	.	.	8ff\	8F\L	-ſe-	4c\	-ſe-	4f\	-ſe-	4dd\	-re	.	.
8A-\J	.	8cc\	8ff\J	8A-\J	.	.	.	.	.	.	.	.	.
!LO:LB:g=original	!	!	!	!	!	!	!	!	!	!	!	!	!
4G\	6	4b-\	4gg\	4G\	-re-	4B-\	-re-	4g\	-re-	8ee-\	Mi-	8ee-\L	4bb-\
.	.	.	.	.	.	.	.	.	.	8ee-\	-ſe-	8gg\	.
4A-\	.	4cc\	4ff\	4A-\	-re	4c\	-re	4f\	-re	8ee-\	-re-	8ff\	8aa-X\L
.	.	.	.	.	.	.	.	.	.	8ee-\	-re	8ee-\J	8gg\J
!	!	!	!	!	!	!	!	!	!	!	!	!LO:LB:g=original	!LO:LB:g=original
=16	=16	=16	=16	=16	=16	=16	=16	=16	=16	=16	=16	=16	=16
*	*	*	*	*	*	*2\right	*	*	*	*	*	*	*
4B-\	4	2b-/	2ff\	(4B-\	no-	2B-\	no-	2f\	no-	4ee-\	no-	4.b-/	4.ff\
4BB-/	3	.	.	4BB-/)	.	.	.	.	.	4dd\	.	.	.
.	.	.	.	.	.	.	.	.	.	.	.	8b-/	8ff\
*2\right	*	*	*	*	*	*	*	*	*	*	*	*	*
!LO:TX:b:t=16	!	!LO:SIC:v:s=2g	!	!LO:TX:b:t=16	!	!	!	!	!	!	!	!	!
2E-\	.	2a-/	2ee-\	2E-\	-bis	2B-\	-bis	2g\	-bis	2ee-\	-bis	2g/	2ee-\
!	!	!	!	!	!	!	!	!	!	!LO:LB:g=original	!	!	!
=17||	=17||	=17||	=17||	=17||	=17||	=17||	=17||	=17||	=17||	=17||	=17||	=17||	=17||
*M3/4	*	*M3/4	*M3/4	*M3/4	*	*M3/4	*	*M3/4	*	*M3/4	*	*M3/4	*M3/4
*	*	*k[a-b-e-]	*	*	*	*	*	*	*	*k[a-b-e-]	*	*	*
!LO:TX:a:t=Solo	!	!	!LO:TX:a:t=Solo	!	!	!	!	!	!	!	!	!	!
!LO:TX:b:i:t=Agnus Dei	!	!LO:TX:b:i:t=Agnus Dei	!LO:TX:b:i:t=Agnus Dei	!LO:TX:b:i:t=Agnus Dei	!	!LO:TX:b:i:t=Agnus Dei	!	!	!	!LO:TX:t=P:problem=kolejność znaków a- b- ee-	!	!LO:TX:b:i:t=Agnus Dei	!LO:TX:b:i:t=Agnus Dei
8E-\L	.	8ee-\L	8ee-\L	0.r	.	0.r	.	0.r	.	0.r	.	0.r	0.r
8E-\	.	8b-\	8b-\	.	.	.	.	.	.	.	.	.	.
8E-\	.	8b-\	8b-\	.	.	.	.	.	.	.	.	.	.
8E-\	.	8b-\J	8b-\J	.	.	.	.	.	.	.	.	.	.
8E-\	.	16b-\LL	16b-\LL	.	.	.	.	.	.	.	.	.	.
.	.	16cc\	16cc\	.	.	.	.	.	.	.	.	.	.
8E-\J	.	16dd-X\	16dd-X\	.	.	.	.	.	.	.	.	.	.
.	.	16b-\JJ	16b-\JJ	.	.	.	.	.	.	.	.	.	.
!	!	!	!LO:LB:g=original	!	!	!	!	!	!	!	!	!	!
=18	=18	=18	=18	=18	=18	=18	=18	=18	=18	=18	=18	=18	=18
8A-\L	.	8cc\L	8cc\L	.	.	.	.	.	.	.	.	.	.
8A-\	.	8a-\	8a-\	.	.	.	.	.	.	.	.	.	.
8A-\	.	8a-\	8a-\	.	.	.	.	.	.	.	.	.	.
8A-\	.	8cc\J	8cc\J	.	.	.	.	.	.	.	.	.	.
8A-\	.	16cc\LL	16cc\LL	.	.	.	.	.	.	.	.	.	.
.	.	16dd\	16dd\	.	.	.	.	.	.	.	.	.	.
8A-\J	.	16ee-\	16ee-\	.	.	.	.	.	.	.	.	.	.
.	.	16cc\JJ	16cc\JJ	.	.	.	.	.	.	.	.	.	.
!	!	!LO:LB:g=original	!	!	!	!	!	!	!	!	!	!	!
=19	=19	=19	=19	=19	=19	=19	=19	=19	=19	=19	=19	=19	=19
8F\L	-_	8ff\L	8ff\L	.	.	.	.	.	.	.	.	.	.
8F\	.	8cc\	8cc\	.	.	.	.	.	.	.	.	.	.
8F\	.	8cc\	8cc\	.	.	.	.	.	.	.	.	.	.
8F\	.	8cc\J	8cc\J	.	.	.	.	.	.	.	.	.	.
8F\	X	16cc\LL	16cc\LL	.	.	.	.	.	.	.	.	.	.
.	.	16dd\	16dd\	.	.	.	.	.	.	.	.	.	.
8F\J	.	16ee-\	16ee-\	.	.	.	.	.	.	.	.	.	.
.	.	16cc\JJ	16cc\JJ	.	.	.	.	.	.	.	.	.	.
=20	=20	=20	=20	=20	=20	=20	=20	=20	=20	=20	=20	=20	=20
8B-\L	.	8dd\L	8dd\L	.	.	.	.	.	.	.	.	.	.
8B-\	.	8b-\	8b-\	.	.	.	.	.	.	.	.	.	.
8B-\	.	8b-\	8b-\	.	.	.	.	.	.	.	.	.	.
8B-\	.	8dd\J	8dd\J	.	.	.	.	.	.	.	.	.	.
8B-\	.	16dd\LL	16dd\LL	.	.	.	.	.	.	.	.	.	.
.	.	16ee-\	16ee-\	.	.	.	.	.	.	.	.	.	.
8B-\J	.	16ff\	16ff\	.	.	.	.	.	.	.	.	.	.
.	.	16dd\JJ	16dd\JJ	.	.	.	.	.	.	.	.	.	.
=21	=21	=21	=21	=21	=21	=21	=21	=21	=21	=21	=21	=21	=21
8G\L	.	8gg\L	8gg\L	0.r	.	0.r	.	0.r	.	1.r	.	0.r	0.r
8G\	.	8dd\	8dd\	.	.	.	.	.	.	.	.	.	.
8G\	.	8dd\	8dd\	.	.	.	.	.	.	.	.	.	.
8G\	.	8dd\J	8dd\J	.	.	.	.	.	.	.	.	.	.
8G\	.	16dd\LL	16dd\LL	.	.	.	.	.	.	.	.	.	.
.	.	16ee-\	16ee-\	.	.	.	.	.	.	.	.	.	.
8G\J	.	16ff\	16ff\	.	.	.	.	.	.	.	.	.	.
.	.	16dd\JJ	16dd\JJ	.	.	.	.	.	.	.	.	.	.
=22	=22	=22	=22	=22	=22	=22	=22	=22	=22	=22	=22	=22	=22
8E-\	.	8ee-\L	8ee-\L	.	.	.	.	.	.	.	.	.	.
8r	.	16dd\L	16dd\L	.	.	.	.	.	.	.	.	.	.
.	.	16cc\JJ	16cc\JJ	.	.	.	.	.	.	.	.	.	.
8G\	.	8b-/L	8b-/L	.	.	.	.	.	.	.	.	.	.
8r	.	16a-/L	16a-/L	.	.	.	.	.	.	.	.	.	.
.	.	16g/JJ	16g/JJ	.	.	.	.	.	.	.	.	.	.
8B-\	6 4	8g/L	8g/L	.	.	.	.	.	.	.	.	.	.
.	5 3	.	.	.	.	.	.	.	.	.	.	.	.
8r	.	16f/L	16f/L	.	.	.	.	.	.	.	.	.	.
.	.	16e-/JJ	16e-/JJ	.	.	.	.	.	.	.	.	.	.
!LO:LB:g=original	!	!	!	!	!	!	!	!	!	!	!	!	!
=23	=23	=23	=23	=23	=23	=23	=23	=23	=23	=23	=23	=23	=23
8E-\L	.	4e-/	4e-/	.	.	.	.	.	.	8b-\	A-	.	.
8E-\	.	.	.	.	.	.	.	.	.	8ee-\	-gnus	.	.
8E-\	.	4rg	4r	.	.	.	.	.	.	8ee-\L	De-	.	.
8E-\	.	.	.	.	.	.	.	.	.	8b-\J	.	.	.
8E-\	.	4rg	4r	.	.	.	.	.	.	8b-\	-i	.	.
8E-\J	.	.	.	.	.	.	.	.	.	8g\	qui	.	.
=24	=24	=24	=24	=24	=24	=24	=24	=24	=24	=24	=24	=24	=24
8E-\L	.	0.r	0.r	.	.	.	.	.	.	(8g/L	tol-	.	.
8E-\	.	.	.	.	.	.	.	.	.	8e-/J)	.	.	.
8E-\	.	.	.	.	.	.	.	.	.	8e-/	-lis	.	.
8E-\	.	.	.	.	.	.	.	.	.	8b-\	qui	.	.
8E-\	.	.	.	.	.	.	.	.	.	16b-\LL	tol-	.	.
.	.	.	.	.	.	.	.	.	.	16cc\	.	.	.
8E-\J	.	.	.	.	.	.	.	.	.	16dd-X\	.	.	.
.	.	.	.	.	.	.	.	.	.	16b-\JJ	.	.	.
=25	=25	=25	=25	=25	=25	=25	=25	=25	=25	=25	=25	=25	=25
8A-\L	.	.	.	0.r	.	0.r	.	0.r	.	8cc\L	.	0.r	0.r
8A-\	.	.	.	.	.	.	.	.	.	8ee-\	.	.	.
8A-\	.	.	.	.	.	.	.	.	.	8a-\	.	.	.
8A-\	.	.	.	.	.	.	.	.	.	8cc\J	.	.	.
8A-\	.	.	.	.	.	.	.	.	.	16cc\LL	.	.	.
.	.	.	.	.	.	.	.	.	.	16dd\	.	.	.
8A-\J	.	.	.	.	.	.	.	.	.	16ee-\	.	.	.
.	.	.	.	.	.	.	.	.	.	16cc\JJ	.	.	.
=26	=26	=26	=26	=26	=26	=26	=26	=26	=26	=26	=26	=26	=26
8B-\L	.	.	.	.	.	.	.	.	.	8dd\L	.	.	.
8B-\	.	.	.	.	.	.	.	.	.	8ff\	.	.	.
8B-\	.	.	.	.	.	.	.	.	.	8b-\	.	.	.
8B-\	.	.	.	.	.	.	.	.	.	8dd\J	.	.	.
8B-\	.	.	.	.	.	.	.	.	.	16dd\LL	.	.	.
.	.	.	.	.	.	.	.	.	.	16ee-\	.	.	.
8B-\J	.	.	.	.	.	.	.	.	.	16ff\	.	.	.
.	.	.	.	.	.	.	.	.	.	16dd\JJ	.	.	.
!	!	!	!	!	!	!	!	!	!	!LO:LB:g=original	!	!	!
=27	=27	=27	=27	=27	=27	=27	=27	=27	=27	=27	=27	=27	=27
8c\L	.	.	.	.	.	.	.	.	.	8ee-\L	.	.	.
8c\	.	.	.	.	.	.	.	.	.	8gg\J	.	.	.
8c\	.	.	.	.	.	.	.	.	.	8cc\	-lis	.	.
8A-\J	6	.	.	.	.	.	.	.	.	8ff\	pec-	.	.
4B-\	.	.	.	.	.	.	.	.	.	8dd\L	-ca-	.	.
.	.	.	.	.	.	.	.	.	.	8b-\J	.	.	.
=28	=28	=28	=28	=28	=28	=28	=28	=28	=28	=28	=28	=28	=28
!LO:TX:t=P:problem=mixed beam	!	!	!	!	!	!	!	!	!	!	!	!	!
8G\L	6	2.r	2.r	.	.	.	.	.	.	8ee-\L	-ta	.	.
8E-\	.	.	.	.	.	.	.	.	.	8g\J	.	.	.
8A-\	6 5	.	.	.	.	.	.	.	.	2f/	mun-	.	.
8F\	.	.	.	.	.	.	.	.	.	.	.	.	.
8B-\	.	.	.	.	.	.	.	.	.	.	.	.	.
8BB-/J	.	.	.	.	.	.	.	.	.	.	.	.	.
=29	=29	=29	=29	=29	=29	=29	=29	=29	=29	=29	=29	=29	=29
8E-\L	.	8r	8r	0.r	.	0.r	.	0.r	.	8e-/	-di	0.r	0.r
8BBn\	.	8gg\L	8gg\L	.	.	.	.	.	.	8r	.	.	.
8BB\	.	8gg\	8gg\	.	.	.	.	.	.	4r	.	.	.
8BB\	.	8dd\	8dd\	.	.	.	.	.	.	.	.	.	.
8C\	.	8ee-\	8ee-\	.	.	.	.	.	.	4r	.	.	.
8C\J	.	8cc\J	8cc\J	.	.	.	.	.	.	.	.	.	.
!	!	!	!LO:LB:g=original	!	!	!	!	!	!	!	!	!	!
=30	=30	=30	=30	=30	=30	=30	=30	=30	=30	=30	=30	=30	=30
!	!	!LO:TX:t=P:problem=mixed beam	!LO:TX:t=P:problem=mixed beam	!	!	!	!	!	!	!	!	!	!
4GG/	.	8bn\L	8bn\L	.	.	.	.	.	.	8r	.	.	.
.	.	8Bn/	8Bn/	.	.	.	.	.	.	4gg\	Mi-	.	.
4rBB	.	8B/	8B/	.	.	.	.	.	.	.	.	.	.
.	.	8B/	8B/	.	.	.	.	.	.	8dd\	-ſe-	.	.
4rBB	.	8c/	8c/	.	.	.	.	.	.	8ee-\	-re-	.	.
.	.	8c/J	8c/J	.	.	.	.	.	.	8cc\	-re	.	.
!	!	!LO:LB:g=original	!	!	!	!	!	!	!	!	!	!	!
=31	=31	=31	=31	=31	=31	=31	=31	=31	=31	=31	=31	=31	=31
2.r	.	8G/L	8G/L	.	.	.	.	.	.	8bn\	Mi-	.	.
.	.	8G/	8G/	.	.	.	.	.	.	16g\LL	-ſe-	.	.
.	.	.	.	.	.	.	.	.	.	16an\JJ	.	.	.
.	.	8G/	8G/	.	.	.	.	.	.	16bn\LL	.	.	.
.	.	.	.	.	.	.	.	.	.	16cc\JJ	.	.	.
.	.	8G/	8G/	.	.	.	.	.	.	16dd\LL	.	.	.
.	.	.	.	.	.	.	.	.	.	16ee-\JJ	.	.	.
.	.	8G/	8G/	.	.	.	.	.	.	8ff\L	-re-	.	.
.	.	8G/J	8G/J	.	.	.	.	.	.	16ee-\L	.	.	.
!LO:TX:a:t=vi	!	!	!	!	!	!	!	!	!	!	!	!	!
.	.	.	.	.	.	.	.	.	.	16dd\JJ	.	.	.
!LO:LB:g=original	!	!	!	!	!	!	!	!	!	!	!	!	!
=32	=32	=32	=32	=32	=32	=32	=32	=32	=32	=32	=32	=32	=32
!LO:TX:a:t=de	!	!	!	!	!	!	!	!	!	!	!	!	!
8r	.	4G/	4G/	.	.	.	.	.	.	8ee-\	-re	.	.
8BBn/L	.	.	.	.	.	.	.	.	.	[8gg\	Mi-	.	.
8BB/	.	4re	4rA	.	.	.	.	.	.	8gg\]	.	.	.
8BB/	.	.	.	.	.	.	.	.	.	8dd\	-ſe-	.	.
8C/	.	4re	4rA	.	.	.	.	.	.	8ee-\	-re-	.	.
8C/J	.	.	.	.	.	.	.	.	.	8cc\	-re	.	.
!	!	!	!	!	!	!	!	!	!	!LO:LB:g=original	!	!	!
=33	=33	=33	=33	=33	=33	=33	=33	=33	=33	=33	=33	=33	=33
!LO:TX:t=P:problem=mixed beam	!	!	!	!	!	!	!	!	!	!	!	!	!
8GG/L	.	1.r	1.r	0.r	.	0.r	.	0.r	.	8bn\L	no-	0.r	0.r
8G\	.	.	.	.	.	.	.	.	.	8dd\J	.	.	.
8G\	.	.	.	.	.	.	.	.	.	8g/	-bis	.	.
8E-\	.	.	.	.	.	.	.	.	.	8cc\L	Mi-	.	.
8D\	.	.	.	.	.	.	.	.	.	8dd\J	.	.	.
8G\J	.	.	.	.	.	.	.	.	.	8dd\	-ſe-	.	.
=34	=34	=34	=34	=34	=34	=34	=34	=34	=34	=34	=34	=34	=34
!LO:TX:t=P:problem=mixed beam	!	!	!	!	!	!	!	!	!	!	!	!	!
8c\L	.	.	.	.	.	.	.	.	.	4.ee-\	-re-	.	.
8A-\	.	.	.	.	.	.	.	.	.	.	.	.	.
8G\	.	.	.	.	.	.	.	.	.	.	.	.	.
8F\	.	.	.	.	.	.	.	.	.	8dd\	-re	.	.
8G\	.	.	.	.	.	.	.	.	.	4dd\	no-	.	.
8GG/J	.	.	.	.	.	.	.	.	.	.	.	.	.
=35	=35	=35	=35	=35	=35	=35	=35	=35	=35	=35	=35	=35	=35
8C\L	.	8r	8r	.	.	.	.	.	.	8cc\	-bis	.	.
!	!	!LO:TX:t=P:problem=mixed beam	!	!	!	!	!	!	!	!	!	!	!
8D\	.	8b-\L	8b-/L	.	.	.	.	.	.	8r	.	.	.
8D\	.	8b-\	8b-/	.	.	.	.	.	.	4r	.	.	.
8D\	.	8f/	8f/	.	.	.	.	.	.	.	.	.	.
8E-\	.	8g/	8g/	.	.	.	.	.	.	4r	.	.	.
8E-\J	.	8e-/J	8e-/J	.	.	.	.	.	.	.	.	.	.
=36	=36	=36	=36	=36	=36	=36	=36	=36	=36	=36	=36	=36	=36
4BB-/	.	8d/L	8d/L	.	.	.	.	.	.	8r	.	.	.
.	.	8d/	8d/	.	.	.	.	.	.	4b-\	Mi-	.	.
4rBB	.	8d/	8d/	.	.	.	.	.	.	.	.	.	.
.	.	8d/	8d/	.	.	.	.	.	.	8f/	-ſe-	.	.
4rBB	.	8e-/	8e-/	.	.	.	.	.	.	8g/	-re-	.	.
.	.	8e-/J	8e-/J	.	.	.	.	.	.	8e-/	-re	.	.
=37	=37	=37	=37	=37	=37	=37	=37	=37	=37	=37	=37	=37	=37
2.r	.	8B-/L	8B-/L	0.r	.	0.r	.	0.r	.	8e-/	no-	0.r	0.r
.	.	8B-/	8B-/	.	.	.	.	.	.	16B-/LL	-bis	.	.
.	.	.	.	.	.	.	.	.	.	16c/JJ	.	.	.
.	.	8B-/	8B-/	.	.	.	.	.	.	16d/LL	Mi-	.	.
.	.	.	.	.	.	.	.	.	.	16e-/JJ	.	.	.
.	.	8B-/	8B-/	.	.	.	.	.	.	16f/LL	-ſe-	.	.
.	.	.	.	.	.	.	.	.	.	16g/JJ	.	.	.
.	.	8B-/	8B-/	.	.	.	.	.	.	8a-\L	-re-	.	.
.	.	8B-/J	8B-/J	.	.	.	.	.	.	16g\L	.	.	.
!LO:TX:a:t=re	!	!	!	!	!	!	!	!	!	!	!	!	!
.	.	.	.	.	.	.	.	.	.	16f\JJ	.	.	.
!LO:LB:g=original	!	!	!	!	!	!	!	!	!	!	!	!	!
=38	=38	=38	=38	=38	=38	=38	=38	=38	=38	=38	=38	=38	=38
!LO:TX:a:t=tro	!	!	!	!	!	!	!	!	!	!	!	!	!
8r	.	4e-/	4e-/	.	.	.	.	.	.	8g/	-re	.	.
8E-\L	.	.	.	.	.	.	.	.	.	4b-\	Mi-	.	.
8E-\	.	4re	4re	.	.	.	.	.	.	.	.	.	.
8G\	.	.	.	.	.	.	.	.	.	8b-\	-ſe-	.	.
8A-\	.	4re	4re	.	.	.	.	.	.	4cc\	-re-	.	.
8G\J	.	.	.	.	.	.	.	.	.	.	.	.	.
=39	=39	=39	=39	=39	=39	=39	=39	=39	=39	=39	=39	=39	=39
!LO:TX:t=P:problem=mixed beam	!	!	!	!	!	!	!	!	!	!	!	!	!
8A-\L	6 5	2.r	2.r	.	.	.	.	.	.	4f/	-re	.	.
8F\	.	.	.	.	.	.	.	.	.	.	.	.	.
8B-\	.	.	.	.	.	.	.	.	.	2f/	no-	.	.
8A-\	.	.	.	.	.	.	.	.	.	.	.	.	.
8B-\	.	.	.	.	.	.	.	.	.	.	.	.	.
8BB-/J	.	.	.	.	.	.	.	.	.	.	.	.	.
=40	=40	=40	=40	=40	=40	=40	=40	=40	=40	=40	=40	=40	=40
8E-\L	.	8ee-\L	8ee-\L	.	.	.	.	.	.	4e-/	-bis	.	.
8E-\	.	8b-\	8b-\	.	.	.	.	.	.	.	.	.	.
8E-\	.	8b-\	8b-\	.	.	.	.	.	.	4re	.	.	.
8E-\	.	8b-\J	8b-\J	.	.	.	.	.	.	.	.	.	.
!	!	!	!LO:LB:g=original	!	!	!	!	!	!	!	!	!	!
8E-\	.	16b-\LL	16b-\LL	.	.	.	.	.	.	4re	.	.	.
.	.	16cc\	16cc\	.	.	.	.	.	.	.	.	.	.
8E-\J	.	16dd-X\	16dd-X\	.	.	.	.	.	.	.	.	.	.
.	.	16b-\JJ	16b-\JJ	.	.	.	.	.	.	.	.	.	.
=41	=41	=41	=41	=41	=41	=41	=41	=41	=41	=41	=41	=41	=41
8A-\L	.	8cc\L	8cc\L	0.r	.	0.r	.	0.r	.	0.r	.	0.r	0.r
8A-\	.	8a-\	8a-X\	.	.	.	.	.	.	.	.	.	.
8A-\	.	8a-\	8a-\	.	.	.	.	.	.	.	.	.	.
8A-\	.	8cc\J	8cc\J	.	.	.	.	.	.	.	.	.	.
8A-\	.	16cc\LL	16cc\LL	.	.	.	.	.	.	.	.	.	.
.	.	16dd\	16dd\	.	.	.	.	.	.	.	.	.	.
8A-\J	.	16ee-\	16ee-\	.	.	.	.	.	.	.	.	.	.
.	.	16cc\JJ	16cc\JJ	.	.	.	.	.	.	.	.	.	.
!	!	!LO:LB:g=original	!	!	!	!	!	!	!	!	!	!	!
=42	=42	=42	=42	=42	=42	=42	=42	=42	=42	=42	=42	=42	=42
8F\L	.	8ff\L	8ff\L	.	.	.	.	.	.	.	.	.	.
8F\	.	8cc\	8cc\	.	.	.	.	.	.	.	.	.	.
8F\	.	8cc\	8cc\	.	.	.	.	.	.	.	.	.	.
8F\	.	8cc\J	8cc\J	.	.	.	.	.	.	.	.	.	.
8F\	.	16cc\LL	16cc\LL	.	.	.	.	.	.	.	.	.	.
.	.	16dd\	16dd\	.	.	.	.	.	.	.	.	.	.
8F\J	.	16ee-\	16ee-\	.	.	.	.	.	.	.	.	.	.
.	.	16cc\JJ	16cc\JJ	.	.	.	.	.	.	.	.	.	.
=43	=43	=43	=43	=43	=43	=43	=43	=43	=43	=43	=43	=43	=43
8B-\L	.	8dd\L	8dd\L	.	.	.	.	.	.	.	.	.	.
8B-\	.	8b-\	8b-\	.	.	.	.	.	.	.	.	.	.
8B-\	.	8b-\	8b-\	.	.	.	.	.	.	.	.	.	.
8B-\	.	8dd\J	8dd\J	.	.	.	.	.	.	.	.	.	.
8B-\	.	16dd\LL	16dd\LL	.	.	.	.	.	.	.	.	.	.
.	.	16ee-\	16ee-\	.	.	.	.	.	.	.	.	.	.
8B-\J	.	16ff\	16ff\	.	.	.	.	.	.	.	.	.	.
.	.	16dd\JJ	16dd\JJ	.	.	.	.	.	.	.	.	.	.
=44	=44	=44	=44	=44	=44	=44	=44	=44	=44	=44	=44	=44	=44
8G\L	.	8gg\L	8gg\L	.	.	.	.	.	.	.	.	.	.
8G\	.	8dd\	8dd\	.	.	.	.	.	.	.	.	.	.
8G\	.	8dd\	8dd\	.	.	.	.	.	.	.	.	.	.
8G\	.	8dd\J	8dd\J	.	.	.	.	.	.	.	.	.	.
8G\	.	16dd\LL	16dd\LL	.	.	.	.	.	.	.	.	.	.
.	.	16ee-\	16ee-\	.	.	.	.	.	.	.	.	.	.
8G\J	.	16ff\	16ff\	.	.	.	.	.	.	.	.	.	.
.	.	16dd\JJ	16dd\JJ	.	.	.	.	.	.	.	.	.	.
=45	=45	=45	=45	=45	=45	=45	=45	=45	=45	=45	=45	=45	=45
8E-\	.	8ee-\L	8ee-\L	1.r	.	1.r	.	1.r	.	1.r	.	1.r	1.r
8r	.	16dd\L	16dd\L	.	.	.	.	.	.	.	.	.	.
.	.	16cc\JJ	16cc\JJ	.	.	.	.	.	.	.	.	.	.
8GG/	6	8b-/L	8b-/L	.	.	.	.	.	.	.	.	.	.
8r	.	16a-/L	16a-/L	.	.	.	.	.	.	.	.	.	.
.	.	16g/JJ	16g/JJ	.	.	.	.	.	.	.	.	.	.
8BB-/	6 4	8g/L	8g/L	.	.	.	.	.	.	.	.	.	.
.	5 3	.	.	.	.	.	.	.	.	.	.	.	.
8r	.	16f/L	16f/L	.	.	.	.	.	.	.	.	.	.
.	.	16e-/JJ	16e-/JJ	.	.	.	.	.	.	.	.	.	.
=46	=46	=46	=46	=46	=46	=46	=46	=46	=46	=46	=46	=46	=46
2EE-/	.	2e-/	2e-/	.	.	.	.	.	.	.	.	.	.
!LO:TX:b:t=30	!	!	!	!	!	!	!	!	!	!	!	!	!
4r	.	4r	4r	.	.	.	.	.	.	.	.	.	.
!LO:LB:g=original	!	!LO:LB:g=original	!LO:LB:g=original	!LO:LB:g=original	!	!LO:LB:g=original	!	!LO:LB:g=original	!	!LO:LB:g=original	!	!	!
=47||	=47||	=47||	=47||	=47||	=47||	=47||	=47||	=47||	=47||	=47||	=47||	=47||	=47||
*k[a-b-e-]	*	*k[a-b-e-]	*k[a-b-e-]	*k[a-b-e-]	*	*k[a-b-e-]	*	*k[a-b-e-]	*	*k[a-b-e-]	*	*k[b-e-a-]	*k[b-e-a-]
*M4/4	*	*M4/4	*M4/4	*M4/4	*	*M4/4	*	*M4/4	*	*M4/4	*	*M4/4	*M4/4
*met(c)	*	*met(c)	*met(c)	*met(c)	*	*met(c)	*	*met(c)	*	*met(c)	*	*met(c)	*met(c)
!	!	!	!	!	!	!	!	!LO:TX:t=P:problem=kolejność znaków A- B- e-	!	!LO:TX:t=P:problem=kolejność znaków a- b- ee-	!	!	!
!LO:TX:b:i:t=Agnus Dei	!	!LO:TX:b:i:t=Agnus Dei	!LO:TX:b:i:t=Agnus Dei.	!	!	!	!	!	!	!	!	!LO:TX:b:i:t=Agnus Dei	!LO:TX:b:i:t=Agnus Dei
4E-\	6	8e-/L	8e-/L	4E-\	A-	4B-\	A-	4g\	A-	4ee-\	A-	4gg\	4bb-\
.	.	8g/J	8g/J	.	.	.	.	.	.	.	.	.	.
4G\	7	8b-\L	8b-\L	4G\	-gnus	4B-\	-gnus	4e-\	-gnus	4ee-\	-gnus	4ee-\	4bb-\
.	.	8ee-\J	8ee-\J	.	.	.	.	.	.	.	.	.	.
4F\	.	4ee-\	4ee-\	4F\	De-	4c\	De-	4a-\	De-	4ee-\	De-	4ff\	4aa-\
4B-\	.	4dd\	4dd\	8B-\	-i	8B-\	-i	8f\	-i	8dd\	-i	4b-/	4ff\
.	.	.	.	8B-\	qui	8B-\	qui	8f\	qui	8dd\	qui	.	.
=48	=48	=48	=48	=48	=48	=48	=48	=48	=48	=48	=48	=48	=48
4B-\	4 2	8cc\L	8cc\L	4B-\	tol-	4c\	tol-	4e-\	tol-	4cc\	tol-	4ee-\	4bb-\
.	.	8ff\J	8ff\J	.	.	.	.	.	.	.	.	.	.
4A-\	6	16aa-\LL	16aa-\LL	8A-\	-lis	8c\	-lis	8a-\	-lis	8ff\	-lis	4ff\	4ff\
.	.	16gg\	16gg\	.	.	.	.	.	.	.	.	.	.
.	.	16ff\	16ff\	8A-\	pec-	8c\	pec-	8g\	pec-	8ee-\	pec-	.	.
.	.	16ee-\JJ	16ee-\JJ	.	.	.	.	.	.	.	.	.	.
4A-\	4 2	8dd\L	8dd\L	4A-\	-ca-	4B-\	-ca-	4f\	-ca-	4dd\	-ca-	4b-/	4ff\
.	.	8b-\	8b-\	.	.	.	.	.	.	.	.	.	.
4G\	6	8ee-\	8ee-\	4G\	-ta	4B-\	-ta	4g\	-ta	4ee-\	-ta	4ee-\	4bb-\
.	.	8gg\J	8gg\J	.	.	.	.	.	.	.	.	.	.
=49	=49	=49	=49	=49	=49	=49	=49	=49	=49	=49	=49	=49	=49
4E-\	7	8aa-\L	8aa-\L	2F\	mun-	(4c\	mun-	2a-\	mun-	(4ee-\	mun-	2ff\	2aa-\
.	.	16gg\L	16gg\L	.	.	.	.	.	.	.	.	.	.
.	.	16ff\JJ	16ff\JJ	.	.	.	.	.	.	.	.	.	.
4BB-/	7	8bb-\L	8bb-\L	.	.	4B-\)	.	.	.	4dd\)	.	.	.
.	.	8ff\J	8ff\J	.	.	.	.	.	.	.	.	.	.
!	!	!LO:TX:t=P:problem=mixed beam	!	!	!	!	!	!	!	!	!	!LO:TX:t=P:problem=mixed beam	!
4E-\	.	8gg\L	8gg\L	4E-\	-di	4B-\	-di	4g\	-di	4ee-\	-di	8b-/L	8gg\L
.	.	8ee-\	8ee-\	.	.	.	.	.	.	.	.	8gg\	8bb-\
4E-\	.	8gg\	8gg\	4E-\	pec-	4G\	pec-	4g\	pec-	4b-\	pec-	8gg\	8bb-\
.	.	8b-/J	8b-\J	.	.	.	.	.	.	.	.	8ee-\J	8gg\J
=50	=50	=50	=50	=50	=50	=50	=50	=50	=50	=50	=50	=50	=50
4E-\	6 4	8ff\L	8ff\L	4E-\	-ca-	4An\	-ca-	4f\	-ca-	4cc\	-ca-	2ff\	4aaX\
!	!	!	!LO:SIC:v:s=8cc	!	!	!	!	!	!	!	!	!	!
.	.	8cc\	8dd\	.	.	.	.	.	.	.	.	.	.
4D\	6	8ff\	8ff\	4D/	-ta	[4B-\	-ta	4f\	-ta	4dd\	-ta	.	4bb-\
.	.	8bb-\J	8bb-\J	.	.	.	.	.	.	.	.	.	.
2C/	7	2ee-T\	2ee-T\	2C/	mun-	4B-\]	.	(4g\	mun-	2ee-\	mun-	2ee-\	4bb-\
.	6	.	.	.	.	4An\	mun-	4c/)	.	.	.	.	4aaX\
=51	=51	=51	=51	=51	=51	=51	=51	=51	=51	=51	=51	=51	=51
4BB-/	.	4dd\	4dd\	4BB-/	-di	4B-\	-di	4f\	-di	4dd\	-di	4ff\	4bb-\
4rBB	.	8r	8r	4rBB	.	4rF	.	4r	.	8r	.	4r	4r
.	.	8f/	8d/	.	.	.	.	.	.	8b-\	Qui	.	.
4rBB	.	8g/L	8e-/L	4rBB	.	4rF	.	4r	.	[<2b-\	tol-	2r	2r
.	.	8f/	8d/	.	.	.	.	.	.	.	.	.	.
8r	.	8g/	8e-/	8rBB	.	8r	.	8r	.	.	.	.	.
8D\	6	8b-/J	8f/J	8D\	Qui	8B-\	Qui	8f\	Qui	.	.	.	.
=52	=52	=52	=52	=52	=52	=52	=52	=52	=52	=52	=52	=52	=52
4E-\	5_	4.b-/	8g/L	4E-\	tol-	4G/	tol-	4g\	tol-	4b-\]	.	0r	0r
.	.	.	8b-/	.	.	.	.	.	.	.	.	.	.
8E-\	.	.	8e-/	8E-\	-lis	8G/	-lis	8g\	-lis	8b-\	-lis	.	.
8r	X	8g/	8en/J	8r	.	8r	.	8r	.	8cc\	pec-	.	.
!	!	!	!	!LO:LB:g=original	!	!LO:LB:g=original	!	!	!	!LO:LB:g=original	!	!	!
4r	.	8a-X\L	8f/L	4r	.	4r	.	4rA	.	[<2cc\	-ca-	.	.
.	.	8g\	8en/	.	.	.	.	.	.	.	.	.	.
8r	.	8a-\	8f/	8r	.	8r	.	8rF	.	.	.	.	.
8En\	6	8cc\J	8g/J	8En\	Qui	8c\	Qui	8g\	Qui	.	.	.	.
!	!	!	!	!	!	!	!	!LO:LB:g=original	!	!	!	!	!
=53	=53	=53	=53	=53	=53	=53	=53	=53	=53	=53	=53	=53	=53
4F\	.	4.cc\	8an\L	4F\	tol-	4An/	tol-	4an\	tol-	4cc\]	.	.	.
.	.	.	8cc\J	.	.	.	.	.	.	.	.	.	.
8F\	n	.	8f/L	8F\	-lis	8A/	-lis	8a\	-lis	8cc\	-ta	.	.
8r	.	8an/	8f#X/J	8r	.	8r	.	8r	.	8dd\	Qui	.	.
!	!	!LO:LB:g=original	!LO:LB:g=original	!	!	!	!	!	!	!	!	!	!
4r	.	8b-\L	8g/L	4r	.	4r	.	4r	.	[<2dd\	tol-	.	.
.	.	8an\	8f#X/	.	.	.	.	.	.	.	.	.	.
8r	.	8b-\	8g/	8r	.	8r	.	8r	.	.	.	.	.
8F#X\	6	8dd\J	8an/J	8F#X\	Qui	8d\	Qui	8a\	Qui	.	.	.	.
!LO:LB:g=original	!	!	!	!	!	!	!	!	!	!	!	!	!LO:LB:g=original
=54	=54	=54	=54	=54	=54	=54	=54	=54	=54	=54	=54	=54	=54
4G\	.	4dd\	8b-\L	4G\	tol-	4B-\	tol-	4g\	tol-	4dd\]	-lis	4r	4r
.	.	.	8dd\	.	.	.	.	.	.	.	.	.	.
!	!	!LO:TX:t=P:problem=mixed beam	!	!	!	!	!	!	!	!	!	!	!
4E-X\	.	8ee-\L	8g\	8E-X\	-lis	8c\	-lis	8g\	-lis	4ee-\	pec-	4gg\	4bb-\
.	.	8g/J	8ee-\J	8E-\	pec-	8B-\	pec-	8g\	pec-	.	.	.	.
4Fn\	n	4an/	8ee-\L	4F\	-ca-	4An\	-ca-	4f\	-ca-	4ee-\	-ca-	4ff\	4aaX\
.	.	.	8cc\	.	.	.	.	.	.	.	.	.	.
4BB-/	7	[4b-/	8dd\	4B-\	-ta	4B-\	-ta	4f\	-ta	4dd\	-ta	4ff\	4bb-\
.	.	.	8b-\J	.	.	.	.	.	.	.	.	.	.
=55	=55	=55	=55	=55	=55	=55	=55	=55	=55	=55	=55	=55	=55
4F\	4	4b-/]	8cc\L	2F\	mun-	4B-\	mun-	2f\	mun-	2cc\	mun-	2ff\	4bb-\
.	.	.	8ff\	.	.	.	.	.	.	.	.	.	.
4FF/	n	4an/	8ff\	.	.	4An\	.	.	.	.	.	.	4aaX\
.	.	.	8cc\J	.	.	.	.	.	.	.	.	.	.
4BB-/	.	4b-/	4dd\	4BB-/	-di	4B-\	-di	4f\	-di	4dd\	-di	4ff\	4bb-\
4rBB	.	8r	8r	4rBB	.	4r	.	8r	.	4r	.	4r	4r
.	.	8B-/	8G/	.	.	.	.	8e-\	Qui	.	.	.	.
!	!	!	!	!	!	!	!	!	!	!	!	!LO:LB:g=original	!
=56	=56	=56	=56	=56	=56	=56	=56	=56	=56	=56	=56	=56	=56
4r	.	8c/L	8A-/L	4r	.	4r	.	[2e-\	tol-	4r	.	00r	00r
.	.	8B-/	8G/	.	.	.	.	.	.	.	.	.	.
8r	.	8c/	8A-/	8r	.	8r	.	.	.	8r	.	.	.
8G\	6	8e-/J	8B-/J	8G\	Qui	8B-\	Qui	.	.	8ee-\	Qui	.	.
4A-\	5_	4.e-/	8c/L	4A-X\	tol-	4c\	tol-	4e-\]	.	4cc\	tol-	.	.
.	.	.	8e-/	.	.	.	.	.	.	.	.	.	.
8A-\	.	.	8A-/	8A-\	-lis	8c\	-lis	8e-\	-lis	8cc\	-lis	.	.
8r	X	8c/	8An/J	8r	.	8r	.	8f\	qui	8r	.	.	.
=57	=57	=57	=57	=57	=57	=57	=57	=57	=57	=57	=57	=57	=57
4r	.	8d/L	8B-/L	4r	.	4r	.	[2f\	tol-	4r	.	.	.
.	.	8c/	8An/	.	.	.	.	.	.	.	.	.	.
8r	.	8d/	8B-/	8r	.	8r	.	.	.	8r	.	.	.
8An\	6	8f/J	8c/J	8An\	Qui	8c\	Qui	.	.	8ff\	Qui	.	.
4B-\	5_	4.f/	8d/L	4B-\	tol-	4d\	tol-	4f\]	.	4dd\	tol-	.	.
.	.	.	8f/	.	.	.	.	.	.	.	.	.	.
8B-\	.	.	8B-/	8B-\	-lis	8d\	-lis	8f\	-lis	8dd\	-lis	.	.
8r	X	8d/	8Bn/J	8r	.	8r	.	8g\	qui	8r	.	.	.
!	!	!	!	!LO:LB:g=original	!	!LO:LB:g=original	!	!	!	!	!	!	!
=58	=58	=58	=58	=58	=58	=58	=58	=58	=58	=58	=58	=58	=58
4r	.	8e-/L	8c/L	4r	.	4r	.	4g\	tol-	4r	.	.	.
.	.	8d/	8Bn/	.	.	.	.	.	.	.	.	.	.
8r	.	8e-/	8c/	8r	.	8r	.	8g\	-lis	8r	.	.	.
8Bn\	6	8g/J	8d/J	8Bn\	pec-	8d\	pec-	8g\	pec-	8gg\	pec-	.	.
!	!	!	!LO:TX:t=P:problem=mixed beam	!	!	!	!	!LO:LB:g=original	!	!	!	!	!
4c\	.	4g/	8e-/L	4c\	-ca-	4c\	-ca-	4g\	-ca-	4ee-\	-ca-	.	.
.	.	.	8ee-\	.	.	.	.	.	.	.	.	.	.
4F\	6 5	4a-/	8dd\	4F\	-ta	4c\	-ta	4a-\	-ta	4dd\	-ta	.	.
.	.	.	8dd\J	.	.	.	.	.	.	.	.	.	.
!	!	!	!	!	!	!	!	!	!	!LO:LB:g=original	!	!	!
=59	=59	=59	=59	=59	=59	=59	=59	=59	=59	=59	=59	=59	=59
4G\	4	2g/	4.dd\	2G\	mun-	4c\	mun-	2g\	mun-	2dd\	mun-	.	.
4GG/	n	.	.	.	.	4Bn\	.	.	.	.	.	.	.
.	.	.	8dd\	.	.	.	.	.	.	.	.	.	.
!	!	!	!LO:TX:t=P:problem=mixed beam	!	!	!	!	!	!	!	!	!	!
4C/	.	8g/L	8cc\L	4C/	-di	4c\	-di	4g\	-di	4cc\	-di	.	.
.	.	8c/	8c/	.	.	.	.	.	.	.	.	.	.
4rBB	.	8c/	8c/	4r	.	4r	.	4r	.	4r	.	.	.
!	!	!	!LO:N:vis=8.	!	!	!	!	!	!	!	!	!	!
.	.	8c/J	8c/J	.	.	.	.	.	.	.	.	.	.
!	!	!	!LO:LB:g=original	!	!	!	!	!	!	!	!	!	!
=60	=60	=60	=60	=60	=60	=60	=60	=60	=60	=60	=60	=60	=60
8c\L|	.	4c/	4c/	(8c\L	Do-	1r	.	1r	.	2r	.	1r	1r
8G\|	.	.	.	8G\J)	.	.	.	.	.	.	.	.	.
8G\|	.	4r	4r	(8G\L	-na	.	.	.	.	.	.	.	.
8B-\J|	.	.	.	8B-X\J)	.	.	.	.	.	.	.	.	.
4A-\	6	8ff\L	8ff\L	4A-\	no-	.	.	.	.	8ff\L	Do-	.	.
.	.	8cc\	8cc\	.	.	.	.	.	.	8cc\J	.	.	.
4A-\	.	8cc\	8cc\	4A-\	-bis	.	.	.	.	8cc\L	-na	.	.
.	.	8ee-\J	8ee-\J	.	.	.	.	.	.	8ee-\J	.	.	.
!LO:LB:g=original	!	!	!	!	!	!	!	!	!	!	!	!	!
=61	=61	=61	=61	=61	=61	=61	=61	=61	=61	=61	=61	=61	=61
8B-\L	.	4.dd\	8dd\L	(8B-\L	Do-	4B-X\	Do-	4f\	Do-	4dd\	no-	2r	2r
8F\	6_	.	8ff\	8F\J)	.	.	.	.	.	.	.	.	.
8F\	.	.	8ff\	(8F\L	-na	4c\	-na	4f\	-na	4dd\	-bis	.	.
8A-\J	.	8cc\	8ff\J	8A-\J)	.	.	.	.	.	.	.	.	.
!	!	!LO:LB:g=original	!	!	!	!	!	!	!	!	!	!	!
4G\	6	4b-\	4gg\	4G\	no-	4B-\	no-	4g\	no-	8ee-\	Do-	8ee-\L	4bb-\
.	.	.	.	.	.	.	.	.	.	8ee-\	-na	8gg\	.
4A-\	.	4cc\	4ff\	4A-\	-bis	4c\	-bis	4f\	-bis	8ee-\	no-	8ff\	8aa-X\L
.	.	.	.	.	.	.	.	.	.	8ee-\	-bis	8ee-\J	8gg\J
=62	=62	=62	=62	=62	=62	=62	=62	=62	=62	=62	=62	=62	=62
4B-\	.	2b-/	2ff\	(4B-\	pa-	2B-\	pa-	2f\	pa-	4ee-\	pa-	4.b-/	4.ff\
4BB-/	4	.	.	4BB-/)	.	.	.	.	.	4dd\	.	.	.
.	3	.	.	.	.	.	.	.	.	.	.	8b-/	8ff\
!	!	!LO:TX:b:t=16	!	!	!	!	!	!	!	!	!	!	!
!LO:TX:a:t=16	!	!LO:TX:b:i:t=Dona nobis\nVt kyrie Allegro	!	!LO:TX:b:t=16	!	!	!	!	!	!	!	!	!
!LO:TX:b:i:t=Ad M D G B M V H S O I D V	!	!LO:SIC:v:s=2g	!LO:TX:b:i:t=Dona nobis\nVt kyrie Allegro	!LO:TX:b:t=Dona nobis\nVt kyrie Allegro	!	!LO:TX:b:i:t=Ad M D G B M V H S O I D V.	!	!LO:TX:b:i:t=Dona nobis Vt kyrie\nAllegro	!	!LO:TX:b:i:t=Ad M D G B M V H S O I D V	!	!LO:TX:b:i:t=Dona nobis\nVt kyrie Allegro	!LO:TX:b:i:t=Dona nobis\nVt kyrie Allegro
!LO:TX:b:i:t=Dona nobis Vt kyrie Allegro	!	!LO:TX:b:i:t=Ad M D G B M V H S O I D V	!LO:TX:b:i:t=Ad M D G B M V H S O I D V	!LO:TX:b:i:t=Ad M D G B M V H S O I D V	!	!LO:TX:b:i:t=Dona nobis Vt kyrie Allegro	!	!LO:TX:b:i:t=Ad M D G B M V H S O I D V.	!	!LO:TX:b:i:t=Dona nobis Vt kyrie Allegro	!	!LO:TX:b:i:t=Ad M D G B M V H S O I D V	!LO:TX:b:i:t=Ad M D G B M V H S O I D V
2E-\	.	2a-/	2ee-\	2E-\	-cem	2B-\	-cem	2g\	-cem	2ee-\	-cem.	2g/	2ee-\
==	==	==	==	==	==	==	==	==	==	==	==	==	==
*-	*-	*-	*-	*-	*-	*-	*-	*-	*-	*-	*-	*-	*-
!!!system-decoration: [(g1)][(g2)][(g3)]s9
!!!RDF**kern: < = below
!!!RDF**kern: | = vertical stroke
!!!ENC: Andrzej Kubiczek
!!!END: 2020-12-13
!!!ENC: Marta Lawrence
!!!END: 2022-03-24
!!!YEC: Copyright 2022 Narodowy Instytut Fryderyka Chopina (https://polishscores.org)
!!!YEM: Licence CC BY 4.0 (https://creativecommons.org/licenses/by/4.0)
